X: 1
T: Jenny's Bawbee
R: March
M: 2/4
L: 1/8
K: D
|: g | a2 a>g | fd de/f/ | gB e>d | cA Ag |
a2 a>g | fd fa | B2 cA | d2 d :|
e | fd ge | fd de/f/ | gB e>d | cA A |
[1e | fd ge | fd fa | B2 cA | d2 d :|
[2g | a2 a>g | fd fa | B2 cA | d2 d ||
